X:1
T: Hill of Keir
C:
R:Reel
Q: 232
K:A
M:4/4
L:1/8
E2|:A2 EA cA GA|BA GF E2 Ac|d2 Bd c2 Ac|Bc BA AG FE|
A2 EA cA GA|BA GF E2 Ac|d2 Bd c2 Ac|1BA GB A2 E2:|2BA GB A2 d2|
|:ce ef e2 ce|fe de fa gf|e2 ce Ac ec|dB cA BE GB|
|1ce ef e2 ce|fe de fa gf|e2 cA d2 BG|A2 A2 A2 d2:|
|2A2 EA cA GA|BA GF E2 Ac|d2 Bd c2 Ac|BA GB A2||
